X:1
T:Donna felice e bella
T:Lodovico Agostini
T:Donna felice e bella
C:Lodovico Agostini
%%score [ 1 2 3 4 ]
L:1/8
Q:1/4=120
M:4/4
K:F
V:1 treble nm="Soprano 1" snm="S 1"
V:2 treble nm="Soprano 2" snm="S 2"
V:3 alto1 nm="Soprano 3" snm="S 3"
V:4 alto nm="Tenor" snm="T"
V:1
 z8 | f8 | e6 d2 | ^c2 d2 c4 | d4 z2 e2 | e2 e2 f2 f2 | B4 B2 A2 | A4 =B2 c2- | c2 c2 c4 | %9
w: |Don-|na fe-|li- ce e bel-|la, Fe-|li- ce e ben ch'ogn'|ho- ra, Vi|mi- ra et o-|* de con|
 d3 e f2 f2- | f2 e2 f4 | z8 | z2 c2 dcde | f4 e4 | f2 f4 f2 | f4 d2 ^c2 | d4 ^c4 | z4 d4 | %18
w: dol- ce fa- vel-|* * la,||Ri- den- * * *|* do in|si dol- ce|dol- cez- za an-|co- ra,|Io|
 d2 d4 d2 | d4 e4 | e2 e4 e2 | f4 d4 | _e8 | d4 c2 c2- | c2 =BA B4 | c4 z2 d2 | d4 c4 | d4 z2 c2 | %28
w: che vo- stro|son, Io|che vo- stro|son ne|d'al-|tra vor- re-||i, A-|mor lo|sa, A-|
 c4 =B4 | c4 A4 | d6 d2 | ^c4 d2 f2- | f2 ed e4 | f4 z2 f2 | f3 f f2 d2 | c4 !fermata!=B4 | %36
w: mor lo|sa che|tut- to|scor- ge e ve-||de, Ne|cio ce- lar po-|tre- i,|
 z4 d4- | d4 A4 | =B4- B2 B2 | =B4 c4 | A8 | A4 A4 | d4 c4 | c8 | c8 | =B8 | z4 d4- | d4 d4 | %48
w: Ai,|_ Ai,|Ai, _ che|mi con-|strin-|ge la|da- ta|fe-|de,|Ai,|Ai,|_ che|
 e6 e2 | f4 e2 d2 | ^c4 d2 d2 | d4 c2 f2- | f2 ed e4 | f8 |] %54
w: mi con-|strin- * *|* ge la|da- ta fe-||de.|
V:2
 z8 | c8 | c6 A2 | A2 G2 A4 | A4 z2 c2 | c2 c2 c2 d2 | _e4 d2 d2 | d4 d2 e2- | e2 e2 f4 | %9
w: |Don-|na fe-|li- ce e bel-|la, Fe-|li- ce e ben ch'ogn'|ho- ra, Vi|mi- ra et o-|* de con|
 f4 d2 c2 | c4 c4 | z2 c2 AGAB | c4 F2 f2 | d6 ^c2 | d2 d4 d2 | c4 B2 A2 | A2 G2 A4 | z4 A4 | %18
w: dol- ce fa-|vel- la,|Ri- den- * * *|* do, Ri-|den- do in|si dol- ce|dol- cez- za an-|co- * ra,|Io|
 A2 A4 A2 | =B4 c4 | c2 c4 c2 | c4 =B4 | c8 | d4 _e4 | d8 | e4 z2 f2 | f4 f4 | f4 z2 e2 | e4 d4 | %29
w: che vo- stro|son, Io|che vo- stro|son ne|d'al-|tra vor-|re-|i, A-|mor lo|sa, A-|mor lo|
 e4 f4 | fedc B2 B2 | A4 A4 | c8 | c4 z2 c2 | c3 c d2 f2 | _e4 d4 | =B8 | z4 d4- | d4 d4 | e6 e2 | %40
w: sa che|tut- * * * * to|scor- ge e|ve-|de, Ne|cio ce- lar po-|tre- i,|Ai,|Ai,|_ che|mi con-|
 f4 e2 d2 | ^c4 d2 A2 | B4 A4 | G8 | A8 | z4 d4- | d4 A4 | =B6 B2 | =B4 c4 | A8 | A4 A4 | B4 c4 | %52
w: strin- * *|* ge la|da- ta|fe-|de,|Ai,|_ Ai,|Ai, che|mi con-|strin-|ge la|da- ta|
 c8 | c8 |] %54
w: fe-|de.|
V:3
 z8 | A8 | G6 F2 | E2 D2 E4 | ^F4 z2 G2 | G2 G2 A2 B2 | G4 F2 ^F2 | ^F4 G2 G2- | G2 G2 A4 | %9
w: |Don-|na fe-|li- ce e bel-|la, Fe-|li- ce e ben ch'ogn'|ho- ra, Vi|mi- ra et o-|* de con|
 B4 B2 A2 | G4 A4 | z2 F2 FEFG | A4 B2 B2 | A4 A4 | A2 B4 B2 | A4 G2 E2 | D4 E4 | z4 ^F4 | %18
w: dol- ce fa-|vel- la,|Ri- den- * * *|* do, Ri-|den- do in|si dol- ce|dol- cez- za an-|co- ra,|Io|
 ^F2 F4 F2 | G4 G4 | G2 G4 G2 | A4 G4 | G8 | G4 G4 | G8 | G4 z2 B2 | B4 A4 | B4 z2 G2 | G4 G4 | %29
w: che vo- stro|son, Io|che vo- stro|son ne|d'al-|tra vor-|re-|i, A-|mor lo|sa, A-|mor lo|
 G4 F4 | F6 G2 | E4 F4 | G8 | F4 z2 A2 | A3 A A2 B2 | G4 G4 | z8 | ^F8 | z4 G4 | G2 G4 G2 | F8 | %41
w: sa che|tut- to|scor- ge e|ve-|de, Ne|cio ce- lar po-|tre- i,||Ai,|Ai,|che mi con-|strin-|
 E4 F4 | F4 F2 F2- | F2 ED E4 | F8 | z8 | ^F8 | z4 G4 | G2 G4 G2 | F8 | E4 F4 | F3 G A2 A2 | G8 | %53
w: ge la|da- ta fe-||de,||Ai,|Ai,|che mi con-|strin-|ge la|da- * * ta|fe-|
 A8 |] %54
w: de.|
V:4
 z8 | F8 | C6 D2 | A,2 B,2 A,4 | D4 z2 C2 | C2 C2 F2 B,2 | _E4 B,2 D2 | D4 G,2 C2- | C2 C2 F,4 | %9
w: |Don-|na fe-|li- ce e bel-|la, Fe-|li- ce e ben ch'ogn'|ho- ra, Vi|mi- ra et o-|* de con|
 B,4 B,2 F,2 | C4 F,4 | z8 | z2 F,2 B,A,B,C | D4 A,4 | D2 B,4 B,2 | F,4 G,2 A,2 | B,4 A,4 | z4 D4 | %18
w: dol- ce fa-|vel- la,||Ri- den- * * *|* do in|si dol- ce|dol- cez- za an-|co- ra,|Io|
 D2 D4 D2 | G,4 C4 | C2 C4 C2 | F,4 G,4 | C8 | =B,4 C4 | G,8 | C4 z2 B,2 | B,4 F,4 | B,4 z2 C2 | %28
w: che vo- stro|son, Io|che vo- stro|son ne|d'al-|tra vor-|re-|i, A-|mor lo|sa, A-|
 C4 G,4 | C4 D4 | B,6 G,2 | A,4 D4 | C8 | F,4 z2 F2 | F3 F D2 B,2 | C4 G,4 | z8 | D8 | G6 G2 | %39
w: mor lo|sa che|tut- to|scor- ge e|ve-|de, Ne|cio ce- lar po-|tre- i,||Ai,|Ai, che|
 E4 C4 | D8 | A,4 D4 | B,4 F,4 | C8 | F,8 | z8 | D8 | G6 G2 | E4 C4 | D8 | A,4 D4 | B,4 F,4 | C8 | %53
w: mi con-|strin-|ge la|da- ta|fe-|de,||Ai,|Ai, che|mi con-|strin-|ge la|da- ta|fe-|
 F,8 |] %54
w: de.|

